packages/core/src/svgs/tokens/mono/WELL.svg

<svg width="24" height="24" viewBox="0 0 24 24" fill="none" xmlns="http://www.w3.org/2000/svg">
<path d="M10.3355 19.3458C12.4229 19.3465 14.4455 18.6224 16.0584 17.2973C17.6712 15.9722 18.7738 14.1283 19.178 12.0805C19.5823 10.0327 19.263 7.9081 18.2748 6.06954C17.2866 4.23099 15.6907 2.79257 13.7597 2C15.5656 2.33599 17.2454 3.15885 18.6178 4.37973C19.9904 5.60061 21.0033 7.17316 21.5474 8.92762C22.0915 10.682 22.1462 12.5519 21.7053 14.335C21.2645 16.1183 20.345 17.7473 19.0462 19.0462C17.7473 20.345 16.1183 21.2645 14.335 21.7053C12.5519 22.1462 10.682 22.0915 8.92762 21.5474C7.17316 21.0033 5.60061 19.9904 4.37973 18.6178C3.15885 17.2454 2.33599 15.5656 2 13.7597C2.67898 15.4123 3.83397 16.8258 5.31818 17.8205C6.80239 18.8151 8.54881 19.3461 10.3355 19.3458Z" fill="white"/>
<path d="M19.346 10.3354C19.3453 11.9931 18.8872 13.6185 18.0223 15.0327C17.1574 16.4468 15.919 17.595 14.4437 18.3508C12.9684 19.1066 11.313 19.4406 9.65991 19.3164C8.00692 19.192 6.42021 18.6141 5.07446 17.6461C5.88958 18.6352 6.90636 19.4392 8.0569 20.004C9.2075 20.569 10.4653 20.8818 11.7464 20.9219C13.0274 20.962 14.3024 20.7283 15.486 20.2364C16.6696 19.7445 17.7345 19.0057 18.6099 18.0694C19.4853 17.1331 20.1507 16.0208 20.562 14.8069C20.9733 13.5929 21.1207 12.3051 20.9946 11.0297C20.8686 9.75407 20.4717 8.52018 19.8308 7.41022C19.1899 6.30026 18.3195 5.33981 17.2777 4.59302C18.5712 6.15514 19.3397 8.15467 19.3397 10.3416L19.346 10.3354Z" fill="white"/>
<path d="M2.33765 11.2977C2.62507 13.5347 4.59959 18.1085 10.2233 18.4898C9.11727 11.9475 4.50587 10.9666 2.33765 11.2977Z" fill="white"/>
<path d="M18.6022 11.2977C18.3211 13.5347 16.3403 18.1085 10.7166 18.4898C11.8288 11.9475 16.4403 10.9666 18.6022 11.2977Z" fill="white"/>
<path d="M10.073 16.303C10.2668 16.7654 10.4229 17.4403 10.4792 17.7214C10.7354 15.9906 12.1976 12.279 15.9904 11.273C15.9967 10.2733 15.8967 8.02371 15.4593 6.94897C10.5167 9.20469 9.81059 14.1223 10.073 16.303Z" fill="white"/>
<path d="M9.64177 15.278C8.20461 12.4224 5.94265 11.4103 4.99288 11.2665C4.94914 10.4729 4.98038 8.50467 5.48026 6.96753C8.57327 8.41719 9.95422 10.8791 10.2541 11.9352C9.85449 13.0046 9.64731 14.1363 9.64177 15.278Z" fill="white"/>
<path d="M8.21729 8.34877C9.14901 9.24784 9.92218 10.2977 10.5042 11.4543C10.8417 10.7606 11.7664 9.16109 12.7537 8.34877C12.4476 7.55522 11.579 5.71191 10.5042 4.68091C9.39832 5.69941 8.51722 7.55522 8.21729 8.34877Z" fill="white"/>
</svg>

<svg xmlns="http://www.w3.org/2000/svg" width="24" height="24" fill="none" viewBox="0 0 24 24">
    <path fill="#fff" d="M10.336 19.346A9.01 9.01 0 0 0 13.76 2 10.084 10.084 0 1 1 2 13.76a9.01 9.01 0 0 0 8.336 5.586"/>
    <path fill="#fff" d="M19.346 10.335a9.01 9.01 0 0 1-14.272 7.311A9.01 9.01 0 1 0 17.278 4.593a8.97 8.97 0 0 1 2.062 5.749z"/>
    <path fill="#fff" d="M2.338 11.298c.287 2.237 2.262 6.81 7.885 7.192-1.106-6.542-5.717-7.523-7.885-7.192m16.264 0c-.28 2.237-2.262 6.81-7.885 7.192 1.112-6.542 5.723-7.523 7.885-7.192"/>
    <path fill="#fff" d="M10.073 16.303c.194.462.35 1.137.406 1.418.256-1.73 1.719-5.442 5.511-6.448.007-1-.093-3.25-.53-4.324-4.943 2.256-5.65 7.173-5.387 9.354"/>
    <path fill="#fff" d="M9.642 15.278c-1.437-2.856-3.7-3.868-4.65-4.011-.043-.794-.012-2.762.488-4.3 3.093 1.45 4.474 3.912 4.774 4.968a9.7 9.7 0 0 0-.612 3.343"/>
    <path fill="#fff" d="M8.217 8.349a11.5 11.5 0 0 1 2.287 3.105c.338-.693 1.262-2.293 2.25-3.105-.306-.794-1.175-2.637-2.25-3.668-1.106 1.018-1.987 2.874-2.287 3.668"/>
</svg>
